src/sprite/close.svg

<svg width="32" height="32" viewBox="0 0 32 32" fill="none" xmlns="http://www.w3.org/2000/svg">
<g id="close_black_24dp (5) 1" clip-path="url(#clip0_1403_208)">
<path id="Vector" d="M25.3334 8.5465L23.4534 6.6665L16.0001 14.1198L8.54675 6.6665L6.66675 8.5465L14.1201 15.9998L6.66675 23.4532L8.54675 25.3332L16.0001 17.8798L23.4534 25.3332L25.3334 23.4532L17.8801 15.9998L25.3334 8.5465Z" fill="#5685FF"/>
</g>
<defs>
<clipPath id="clip0_1403_208">
<rect width="32" height="32" fill="white"/>
</clipPath>
</defs>
</svg>

<!-- Generated by IcoMoon.io -->
<svg version="1.1" xmlns="http://www.w3.org/2000/svg" width="32" height="32" viewBox="0 0 32 32">
<title>close</title>
<path fill="#5685ff" d="M25.333 8.546l-1.88-1.88-7.453 7.453-7.453-7.453-1.88 1.88 7.453 7.453-7.453 7.453 1.88 1.88 7.453-7.453 7.453 7.453 1.88-1.88-7.453-7.453 7.453-7.453z"></path>
</svg>
